data/styles/clear/style-night/symbols/tram-m.svg

<svg height="24" viewBox="0 0 24 24" width="24"><g fill="none" fill-rule="evenodd"><rect fill="#fff" height="24" opacity=".4" rx="2.5" width="24"/><rect fill="#204366" height="22" rx="2" width="22" x="1" y="1"/><path d="m14.9862193 8.0347299c.5416429.00683009 1.3418567.27335676 1.7775363.60114525l.3947302.29697977c.4336227.326241.8011774 1.04682551.8036294 1.59643438l.0377921 8.4710181c.0078398.6706865-.4829695.9996926-.9812469.9996926h-8.96899346c-.49827741 0-.99655482-.4998463-1.01186274-.9996926l-.0377921-8.4710181c-.0024028-.53858165.35336971-1.26435687.79475001-1.59643438l.39473018-.29697977c.43362271-.326241 1.24666952-.60127953 1.79866381-.60127953h.00150839v-2.03521052h.99655481v2.03521052h3.0034452v-2.03521052h.9965548zm-5.60705685 2.7312458c.37576656-.4012158 1.12061815-.7264655 1.68426525-.7264655h2.9529805c.5544275 0 1.3052256.3354939 1.6782516.7507908l.3121379.3475089v2.833443c0 .5576723-.4577073 1.0097551-.9994741 1.0097551h-4.9769357c-.55199426 0-.99947404-.4408637-.99947404-1.0097551v-2.833443zm.64830625 6.8420392c0 .4140867-.33463316.7497695-.74741613.7497695-.41278298 0-.74741612-.3356828-.74741612-.7497695 0-.4140866.33463314-.7497694.74741612-.7497694.41278297 0 .74741613.3356828.74741613.7497694zm5.7301903-.7497694c.4127829 0 .7474161.3356828.7474161.7497694 0 .4140867-.3346332.7497695-.7474161.7497695-.412783 0-.7474162-.3356828-.7474162-.7497695 0-.4140866.3346332-.7497694.7474162-.7497694zm-7.72329997-11.85855295c0-.55211495.45710432-.99969255.99410794-.99969255h6.98077763c.5490306 0 .9941079.44372836.9941079.99969255 0 .55211495-.4571043.99969255-.9941079.99969255h-6.98077763c-.54903065 0-.99410794-.44372835-.99410794-.99969255z" fill="#fff" opacity=".6"/></g></svg>

<svg width="24" height="24" viewBox="0 0 24 24">
  <g fill="none" fill-rule="evenodd">
    <rect width="24" height="24" fill="#FFF" opacity=".4" rx="2.5"/>
    <rect width="22" height="22" x="1" y="1" fill="#1F4366" rx="2"/>
    <path fill="#FFF" d="M14.9862193,8.0347299 L14.9862193,5.9993851 L13.9896645,5.9993851 L13.9896645,8.03459562 L10.9862193,8.03459562 L10.9862193,5.9993851 L9.98966449,5.9993851 L9.98966449,8.03459562 L9.9881561,8.03459562 C9.43616181,8.03459562 8.623115,8.30963415 8.18949229,8.63587515 L7.79476211,8.93285492 C7.35338181,9.26493243 6.9976093,9.99070765 7.0000121,10.5292893 L7.0378042,19.0003074 C7.05311212,19.5001537 7.55138953,20 8.04966694,20 L17.0186604,20 C17.5169378,20 18.0077471,19.6709939 17.9999073,19.0003074 L17.9621152,10.5292893 C17.9596632,9.97968043 17.5921085,9.25909592 17.1584858,8.93285492 L16.7637556,8.63587515 C16.328076,8.30808666 15.5278622,8.04155999 14.9862193,8.0347299 Z M9.37916245,10.7659757 C9.75492901,10.3647599 10.4997806,10.0395102 11.0634277,10.0395102 L14.0164082,10.0395102 C14.5708357,10.0395102 15.3216338,10.3750041 15.6946598,10.790301 L16.0067977,11.1378099 L16.0067977,13.9712529 C16.0067977,14.5289252 15.5490904,14.981008 15.0073236,14.981008 L10.0303879,14.981008 C9.47839364,14.981008 9.03091386,14.5401443 9.03091386,13.9712529 L9.03091386,11.1378099 L9.37916245,10.7659757 Z M10.0274687,17.6080149 C10.0274687,18.0221016 9.69283554,18.3577844 9.28005257,18.3577844 C8.86726959,18.3577844 8.53263645,18.0221016 8.53263645,17.6080149 C8.53263645,17.1939283 8.86726959,16.8582455 9.28005257,16.8582455 C9.69283554,16.8582455 10.0274687,17.1939283 10.0274687,17.6080149 Z M15.757659,16.8582455 C16.1704419,16.8582455 16.5050751,17.1939283 16.5050751,17.6080149 C16.5050751,18.0221016 16.1704419,18.3577844 15.757659,18.3577844 C15.344876,18.3577844 15.0102428,18.0221016 15.0102428,17.6080149 C15.0102428,17.1939283 15.344876,16.8582455 15.757659,16.8582455 Z M8.03435903,4.99969255 C8.03435903,4.4475776 8.49146335,4 9.02846697,4 L16.0092446,4 C16.5582752,4 17.0033525,4.44372836 17.0033525,4.99969255 C17.0033525,5.5518075 16.5462482,5.9993851 16.0092446,5.9993851 L9.02846697,5.9993851 C8.47943632,5.9993851 8.03435903,5.55565675 8.03435903,4.99969255 Z" opacity=".6"/>
  </g>
</svg>
